X: 1392
T: The Sligo Lasses
M:C|
L:1/8
N:"collected by McFadden"
B:O'Neill's 1392
Z:"Transcribed by Bob Safranek, rjs@gsp.org"
K:G
G2 (BG) DGBG|D2 ((3FED) dAFA| G2 BG DGef|1 ((3gfe) dc BGAF:|2 ((3gfe) dc BG G2||
g2  bg  dgbg| fgag      fdef| g2 bg dgbg|    dega    bg g2 |
dgbg    dgbg| fgag      fdef| gaba  gedc| ((3Bcd) AG FDEF  |]


